!!!COM: Scarlatti, Domenico
!!!CDT: 1685-1757
!!!OTL: Sonata in F major, L.523, K.205
!!!SCT: K. 205
!!!SCT: L. 523
!!!OMD: VIVACE ([half]=108)
**kern	**kern	**dynam
*staff2	*staff1	*staff1/2
*Icemba	*Icemba	*
*I"L.523 (K.205)	*I"L.523 (K.205)	*
*>[A,A,B,B]	*>[A,A,B,B]	*>[A,A,B,B]
*>norep[A,B]	*>norep[A,B]	*>norep[A,B]
*>A	*>A	*>A
*clefF4	*clefG2	*
*k[b-]	*k[b-]	*
*M2/2	*M2/2	*
*met(c|)	*met(c|)	*
*MM216	*MM216	*
2r	(4ffM	sf
.	8eeL	p
.	8ddJ	.
=1	=1	=1
1r	4cc')	.
.	4aa'	.
.	(4ffM	sf
.	8eeL	p
.	8ddJ	.
=2	=2	=2
1r	4cc')	.
.	4aa'	.
.	(4ffM	sf
.	8eeL	p
.	8ddJ	.
=3	=3	=3
1r	4cc')	.
.	(8b-L<	<
.	8aJ	.
.	8b-L	.
.	8cc	.
.	8dd	.
.	8eeJ	.
!!LO:LB:g=z
=4	=4	=4
2r	8ffL	.
.	8gg	.
.	8aa	.
.	8bb-J	.
*clefG2	*	*
(4fM<	[2ccc^)	f
8eL	.	.
8dJ	.	.
=5	=5	=5
4c')	4ccc]	.
4a'	4cc'	.
(4fM<	[2ccc^	.
8eL	.	.
8dJ	.	.
=6	=6	=6
4c')	4ccc]	.
4a'	4cc'	.
(4fM<	[2ccc^	.
8eL	.	.
8dJ	.	.
=7	=7	=7
4c')	2.ccc]	.
(<8B-L	.	.
8AJ	.	.
8B-L	.	.
8c	.	.
8d	([4bb-	.
8eJ	.	.
!!LO:LB:g=z
=8	=8	=8
8fL	4bb-]	.
8g	.	.
8a	2aa)	.
8b-J	.	.
[2cc)	.	.
.	(8ggL	mf
.	8ffJ)	.
=9	=9	=9
4cc]	(8ffL	.
.	8ee)	.
(4b-/	(8ee	.
.	8ddJ)	.
4a	(8ddL	.
.	8cc)	.
4g	(8cc	.
.	8b-J)	.
=10	=10	=10
.	(cc16qq	.
2f)	(4b-T/)	.
.	4a)	.
4e'	(8ccL	p
.	8ee	<
4c'	8gg	.
.	8bb-J)	[
=11	=11	=11
2f	(4bb-	>
.	4aa)	]
(8cL	(4gg	<
8e	.	.
8g	8ffL	.
8b-J)	8eeJ)	[
!!LO:LB:g=z
=12	=12	=12
(4b-/	(4ee	>
4a)	4ff)	]
(8cL	(4gg	<
8e	.	.
8g	8ffL	.
8b-J)	8eeJ)	[
=13	=13	=13
(4b-/	(4ee	>
4a)	4ff)	]
4r	(8gg#L	p
.	8aa)	.
4f' 4a'	(8aa	.
.	8ggnJ)	.
=14	=14	=14
4f' 4a'	(8ggL	.
.	8ff)	.
4f' 4a'	(8ff	.
.	8eeJ)	.
4f' 4a'	(8eeL	.
.	8dd)	.
4f' 4a'	(8dd	.
.	8ccJ)	.
=15	=15	=15
.	(dd16qq	.
2.f 2.g	(4ccT)	mf
.	4bn)	.
.	(8ff#L	p
.	8gg)	.
4e' 4g'	(8gg	.
.	8ffnJ)	.
!!LO:LB:g=z
=16	=16	=16
4e' 4g'	(8ffL	.
.	8ee)	.
4e' 4g'	(8ee	.
.	8ddJ)	.
4e' 4g'	(8ddL	.
.	8cc)	.
4e' 4g'	(8cc	.
.	8bnJ)	.
=17	=17	=17
.	(cc16qq	.
2.e 2.f	(4bnt/)	mf
.	4a)	.
.	(8eeL	p
.	8ff)	.
4d' 4f'	(8ff	.
.	8eeJ)	.
=18	=18	=18
4d' 4f'	(8eeL	.
.	8dd)	.
4d' 4f'	(8dd	.
.	8ccJ)	.
4c' 4f'	(8ccL	.
.	8bn)	.
4c' 4f'	(8b	.
.	8aJ)	.
=19	=19	=19
*^	*	*
.	.	(bn16qq	.
!	!	!LO:TR:acc=none	!
2ryy	2Bn 2f	(4aT)	mf
.	.	4g)	.
*v	*v	*	*
*clefF4	*	*
*^	*	*
2d	(4Bn	(8gL	p<
.	.	8bn	.
.	4G)	8dd	.
.	.	8ffJ)	[[
!!LO:LB:g=z
=20	=20	=20	=20
2ryy	2c	(4ff	>
.	.	4ee)	]
2d	(4Bn	(8gL	<
.	.	8bn	.
.	4G)	8dd	.
.	.	8ffJ)	[
*v	*v	*	*
=21	=21	=21
2c	(4ff	>
.	4ee)	]
.	(ee8qq	.
(8GL	(4dd)	<
8Bn	.	.
8d	8ccL	.
8fJ)	8bnJ)	[
=22	=22	=22
(4f	(4bn	>
4e)	4cc)	]
.	(ee8qq	.
(8GL	(4dd)	<
8Bn	.	.
8d	8ccL	.
8fJ)	8bJ)	[
=23	=23	=23
(4f	(4bn	>
4e)	4cc)	]
4r	(8ggL	mf
.	8ee	.
4E' 4c'	8cc	.
.	8bJ)	.
!!LO:LB:g=z
=24	=24	=24
2F 2c	(4bn	>
.	4a\)	]
4r	(8aaL	.
.	8ff	.
4F#' 4c' 4d'	8dd	.
.	8ccJ)	.
=25	=25	=25
2G 2c 2d	(4cc	>
.	4bn)	]
4r	(8ggL	p
.	8ee	.
4E' 4c'	8cc	.
.	8bJ)	.
=26	=26	=26
2F 2c	(4bn	.
.	4a\)	.
4r	(8aaL	.
.	8ff	.
4F#' 4c' 4d'	8dd	.
.	8ccJ)	.
=27	=27	=27
2G 2c 2d	(4cc	.
.	4bn)	.
(4Bn	(8gL	<
.	8b	.
4G	8dd	.
.	8ffJ)	[[
!!LO:LB:g=z
=28	=28	=28
4c	(4ff	>
4E-	4ee-)	]
4F	(8fL	<
.	8a-	.
4G)	8bn	.
.	8ddJ)	[
=29	=29	=29
*^	*	*
2e-	(4A-	(4dd	>
.	4c)	4cc)	.
*v	*v	*	*
(4Bn	(8gL	.
.	8bn	.
4G	8dd	.
.	8ffJ)	]
=30	=30	=30
4c	(4ff	>
4E-	4ee-)	]
4F	(8fL	<
.	8a-	.
4G)	8bn	.
.	8ddJ)	[
=31	=31	=31
*^	*	*
2e-	4A- 4c	(4dd	>
.	4A- 4c	4cc)	]
2ryy	4A- 4c	8r	.
!	!	!	!LO:DY:rj
.	.	8cc'L	p
.	4A- 4c	8cc'	.
.	.	8cc'J	.
*v	*v	*	*
!!LO:LB:g=z
=32	=32	=32
4G 4B- 4c 4en	(8dd-L	<
.	8b-X)	.
4G 4B- 4c 4e	(8b-	.
.	8a-J)	.
4G 4c 4e	(8a-L<	.
.	8g)	.
4G 4c 4e	(8g	.
.	8eeJ)	.
=33	=33	=33
4A- 4c 4f	2ff	f >
4A- 4c 4f	.	.
4A- 4c 4f	8r	.
.	8ff'L	] p
4A- 4c 4f	8ff'	.
.	8ff'J	.
=34	=34	=34
4e 4g	(8ggL	<
.	8dd-)	.
4e 4g	(8dd-	.
.	8ccJ)	.
4e 4g	(8ccL	.
.	8b-)	.
4e 4g	(8b-	.
.	8ggJ)	.
=35	=35	=35
.	(gg8qq	.
4F 4c 4f	2aa-)	f >
4F 4c 4f	.	.
4F 4c 4f	8r	.
.	8aa-'L	] p
4F 4c 4f	8aa-'	.
.	8aa-'J	.
*clefG2	*	*
!!LO:LB:g=z
=36	=36	=36
4d- 4f 4b-	(8aa-L	<
.	8gg	.
4d- 4f 4b-	8bb-	.
.	8aa-J	.
4d- 4f 4b-	8ggL	.
.	8ff	.
4d- 4f 4b-	8ee	.
.	8ffJ)	.
=37	=37	=37
4c 4g 4cc	(8ffL	.
.	8ee	.
4c 4g 4cc	8bb-	.
.	8aa-J	.
4d- 4f 4b-	8ggL	.
.	8ff	.
4d- 4f 4bn	8ee	.
.	8ffJ)	.
=38	=38	=38
4c 4g 4cc	(8ffL	.
.	8ee	.
4c 4g 4cc	8bb-	.
.	8aa-J	.
4d- 4f 4b-	8ggL	.
.	8ff	.
4d- 4f 4bn	8ee	.
.	8ffJ	.
*clefF4	*	*
!!LO:LB:g=z
=39||	=39||	=39||
*k[b-e-a-d-]	*k[b-e-a-d-]	*k[b-e-a-d-]
*M12/8	*M12/8	*M12/8
*MM190	*MM190	*MM190
!!LO:TX:tempo:t=([quarter-dot]=126)
4c	4cc)	f
8r	(8ccc	mf
4r	8bb-L	.
.	8aa-	.
8r	8ggJ	.
2.r	8aa-L	.
.	8bb-	.
.	8cccJ	.
.	8bb-L	.
.	8aa-	.
.	8ggJ	.
=40	=40	=40
1.r	8ffL	.
.	8gg	.
.	8aa-J	.
.	8ggL	.
.	8ff	.
.	8ee-J	.
.	8dd-L	.
.	8ee-	.
.	8ffJ	.
.	8ee-L	.
.	8dd-	.
.	8ccJ	.
=41	=41	=41
1.r	8b-L	.
.	8cc	.
.	8dd-J	.
.	8ccL	.
.	8b-	.
.	8a-J	.
.	8gL	.
.	8a-	.
.	8b-J	.
.	8a-L	.
.	8g	.
.	8fJ	.
!!LO:LB:g=z
=42	=42	=42
4r	4.en)	.
(<8c	.	.
8B-L	(4.e	.
8A-	.	.
8GJ	.	.
8A-L	4.f	.
8B-	.	.
8cJ	.	.
8B-L	4.g	.
8A-	.	.
8GJ	.	.
=43	=43	=43
8FL	4.a-	.
8G	.	.
8A-J	.	.
8GL	4.g	.
8F	.	.
8E-J	.	.
8D-L	4.f	.
8E-	.	.
8FJ	.	.
8E-L	4.e-X	.
8D-	.	.
8CJ	.	.
=44	=44	=44
8BB-L	4.d-	.
8C	.	.
8D-J	.	.
8CL	4.c	.
8BB-	.	.
8AA-J	.	.
8GGL	4.B-	.
8AA-	.	.
8BB-J	.	.
8AA-L	4.A-	.
8GG	.	.
8FFJ	.	.
!!LO:LB:g=z
=45	=45	=45
4.CC)	[4.G)	.
4.CC	4G]	.
.	(8G	.
4.CC	8A-L	.
.	8F	.
.	8cJ	.
4.CC	8BnL	.
.	8G	.
.	8B 8fJ)	.
=46	=46	=46
4.CC	(4Bn 4f	>
.	8c) 8en	.
4.CC	4r	]
!	!	!LO:DY:rj
.	(8G	p
4.CC	8A-L	.
.	8F	.
.	8cJ	.
4.CC	8BL	.
.	8G	.
.	8B 8fJ)	.
=47	=47	=47
4.CC	(4Bn 4f	>
.	8c) 8en	.
(4.A-	4r	]
!	!	!LO:DY:rj
.	(8c	mf
4.B-X	8d-L	.
.	8B-	.
.	8fJ	.
4.G	8eL	.
.	8c	.
.	8e 8b-J)	.
!!LO:LB:g=z
=48	=48	=48
4.F	(4en 4b-	>
.	8f 8a-)	.
4.A-	4r	]
.	(8c	p
4.B-	8d-L	.
.	8B-	.
.	8fJ	.
4.G	8eL	.
.	8c	.
.	8e 8b-J)	.
=49	=49	=49
4.F)	(4en 4b-	>
.	8f 8an)	.
(4.d-	4r	]
.	(8f	mf
4.e-	8g-L	.
.	8e-	.
.	8b-J	.
4.c	8aL	.
.	8f	.
.	8a 8ee-J)	.
=50	=50	=50
4.B-	(4an/ 4ee-/	>
.	8b-/ 8dd-/)	.
4.d-	4r	]
!	!	!LO:DY:rj
.	(8f	p
4.e-	8g-L	<
.	8e-	.
.	8b-J	.
4.c	8aL	.
.	8f	.
.	8ee-J)	.
!!LO:LB:g=z
=51	=51	=51
4.B-)	(8ee-L	mf
.	8dd-	.
.	8ccJ)	.
(4.d-	(8ccL	.
.	8b-	.
.	8a-XJ)	.
4.E-	(8a-L	.
.	8g	.
.	8fJ)	.
4.G	(8fL	.
.	8e-	.
.	8d-J)	.
=52	=52	=52
4.A-)	(4d-	>
.	8c)	]
*clefG2	*	*
(4.a-/ 4.cc/	8ee-'L	p
.	8ee-'	.
.	8ee-'J	.
4.g 4.b-	8ee-'L	.
.	8ee-'	.
.	8ee-'J	.
4.a-/ 4.cc/	8ee-'L	.
.	8ee-'	.
.	8ee-'J	.
=53	=53	=53
4.g) 4.b-	8ee-'L	.
.	8ee-'	.
.	8ee-'J	<
(4.g 4.b-	8een'L	.
.	8ee'	.
.	8ee'J	.
4.a-/) 4.cc/	8ff'L	.
.	8ff'	.
.	8ff'J	.
(4.en 4.g 4.cc	8gg'L	.
.	8gg'	.
.	8gg'J	[
!!LO:LB:g=z
=54	=54	=54
.	(8qbb-	.
4.f) 4.a- 4.cc	(8aa-L)	f
.	8gg	.
.	8ffJ)	.
(4.g 4.bn	(8ffL	.
.	8ee-X	.
.	8ddnJ	.
2.c)	8ee-L	.
.	8dd	.
.	8ccJ	.
.	8ggL	.
.	8ee-	.
.	8ccJ)	.
*clefF4	*	*
=55	=55	=55
*^	*^	*
.	.	.	((ddn8q	.
(4.G	(2.G	2.ryy	()8ccL)	>
.	.	.	8bn)	]
.	.	.	8b'J	.
2.g	.	.	8ddn'L	mf
.	.	.	8dd'	.
.	.	.	8dd'J	.
.	2.A-	2.ee-	8cc'L	.
.	.	.	8cc'	.
.	.	.	8cc'J	.
4.f	.	.	8cc'L	.
.	.	.	8cc'	.
.	.	.	8cc'J	.
=56	=56	=56	=56	=56
4.e-	()2.G)	4.ddn	(8ccL	.
.	.	.	8bn)	.
.	.	.	8b'J	.
(2.g	.	4.ryy	8dd'<L	.
.	.	.	8dd'<	.
.	.	.	8dd'<J	.
.	2.A-	2.ee-	(8ddL	.
.	.	.	8cc)	.
.	.	.	8cc'J	.
4.f	.	.	8cc'L	.
.	.	.	8cc'	.
.	.	.	8cc'J	.
!!LO:LB:g=z
=57	=57	=57	=57	=57
4.e-)	2.G)	4.ddn	(8ccL	.
.	.	.	8bn)	.
.	.	.	8b'J	.
2.g^	.	8gg'L	4.b	f
.	.	8gg'	.	.
.	.	8gg'J	.	.
.	4.G	8aa-'L	2.cc	.
.	.	8aa-'	.	.
.	.	8aa-'J	.	.
([4.f	4.G	8aan'L	.	.
.	.	8aa'	.	.
.	.	8aa'J	.	.
=58	=58	=58	=58	=58
4.f]	2.G	8bbn'L	4.ddn	.
.	.	8bb'	.	.
.	.	8bb'J	.	.
4.e-)	.	8ccc'L	4.ee-	.
.	.	8ccc'	.	.
.	.	8ccc'J	.	.
.	.	.	(bb-8q	.
2.ryy	4.F 4.f	2.ryy	(8aa-XL)	.
.	.	.	8gg	.
.	.	.	8ffJ)	.
.	4.G 4.dn 4.f	.	(8ffL	.
.	.	.	8ee-	.
.	.	.	8ddJ	.
*	*	*v	*v	*
=59	=59	=59	=59
(4.c	2.ryy	8ccL	>
.	.	8ee-	.
.	.	8ggJ)	]
4.C)	.	(8ggL	p
.	.	8ee-	.
.	.	8ccJ)	.
.	.	(ddn8qq	.
4.G	(2.G	(8ccL)	.
.	.	8bn)	.
.	.	8b'J	.
([4.g	.	8ddn'L	.
.	.	8dd'	.
.	.	8dd'J	.
!!LO:LB:g=z
=60	=60	=60	=60
*	*	*^	*
4.g]	2.A-	2.ee-	(8ddnL	.
.	.	.	8cc)	.
.	.	.	8cc'J	.
4.f	.	.	8cc'L	.
.	.	.	8cc'	.
.	.	.	8cc'J	.
4.e-)	(2.G)	4.dd	(8ccL	.
.	.	.	8bn)	.
.	.	.	8b'J	.
([4.g	.	4.ryy	8dd'<L<	.
.	.	.	8dd'<	.
.	.	.	8dd'<J	.
=61	=61	=61	=61	=61
4.g]	2.A-	2.ee-	(8ddnL	.
.	.	.	8cc)	.
.	.	.	8cc'J	.
4.f	.	.	8cc'L	.
.	.	.	8cc'	.
.	.	.	8cc'J	.
4.e-)	2.G)	4.dd	(8ccL	.
.	.	.	8bn)	.
.	.	.	8b'J	.
[4.g^	.	8gg'L	4.b	.
.	.	8gg'	.	<
.	.	8gg'J	.	.
=62	=62	=62	=62	=62
4.g]	4.G	8aa-'L	2.cc	.
.	.	8aa-'	.	.
.	.	8aa-'J	.	.
(2.f	4.G	8aan'L	.	.
.	.	8aa'	.	.
.	.	8aa'J	.	.
.	2.G	8bbn'L	4.ddn	.
.	.	8bb'	.	.
.	.	8bb'J	.	.
4.e-)	.	8ccc'L	4.ee-	.
.	.	8ccc'	.	.
.	.	8ccc'J	.	[[
*v	*v	*	*	*
*	*v	*v	*
!!LO:LB:g=z
=63	=63	=63
.	(bb-X8qq	.
4.F 4.f	()8aa-XL	mf
.	8gg	.
.	8ffJ)	.
(<4.G 4.dn 4.f	(8ffL	.
.	8ee-	.
.	8ddnJ	.
4.c)	4cc)	.
.	([8g^	.
(4.c 4.e-	8]gL	.
.	8a-	.
.	8fJ	.
=64	=64	=64
4.Bn 4.dn)	4g)	.
.	([8ddn^	.
(<4.A- 4.c 4.d	8dd]L	.
.	8ee-	.
.	8ccJ	.
4.G 4.B 4.d)	4dd)	.
.	([8g^	.
(4.c 4.e-	8g]L	.
.	8a-	.
.	8fJ	.
=65	=65	=65
4.Bn 4.dn)	4g)	.
.	([8ddn^	.
(<4.A- 4.c 4.d	8ddL]	.
.	8ee-	.
.	8ccJ	.
4.G 4.B 4.d)	4dd)	.
.	([8aa-^	.
(<4.F 4.B 4.d	8aa-L]	.
.	8ff	.
.	8ddJ	.
!!LO:LB:g=z
=66	=66	=66
*^	*	*
4.ryy	4E- 4c)	8ggL	.
.	.	8ee-	.
.	8F (8dn	[8ccJ	.
4e-	4.G	8ccL]	.
.	.	8ddn	.
8d	.	8bnJ	.
2.ryy	4.c)	4cc)	.
.	.	([8g^	p
.	(4.c 4.e-	8gL]	.
.	.	8a-	.
.	.	8fJ	.
*v	*v	*	*
=67	=67	=67
4.Bn 4.dn)	4g)	.
.	([8ddn^	.
(<4.A- 4.c 4.d	8ddL]	.
.	8ee-	.
.	8ccJ	.
4.G 4.B 4.d)	4dd)	.
.	([8g^	.
(4.c 4.e-	8g]L	.
.	8a-	.
.	8fJ	.
=68	=68	=68
4.Bn 4.dn)	4g)	.
.	([8ddn^	.
(<4.A- 4.c 4.d	8ddL]	.
.	8ee-	.
.	8ccJ	.
4.G 4.B 4.d)	4dd)	.
.	([8aa-^	mf
(<4.F 4.B 4.d	8aa-L]	.
.	8ff	.
.	8ddJ	.
!!LO:LB:g=z
=69	=69	=69
*^	*	*
4.ryy	4E- 4c)	8ggL	.
.	.	8ee-	.
.	(8F 8dn	[8ccJ	.
4e-	4.G	8ccL]	f
.	.	8ddn	.
8d	.	8bnJ	.
2.ryy	4c)	8cc'L)	.
.	.	(8cc	.
.	(8E-	8ee-J	.
.	4F	4dd	.
.	8G	8bbn	.
*v	*v	*	*
=70	=70	=70
4c)	8ccc'\L)	.
.	(8c/	.
(8E-	8e-/J	.
4F	4dn	.
8G	8bn	.
4c)	8cc'L)	.
.	(8cc	.
(8E-	8ee-J	.
4F	4ddn	.
8G	8bbn	.
=71	=71	=71
4c)	8ccc'\L)	.
.	(8c/	.
(8E-	8e-/J	.
4F	4dn)	.
8G)	(8ddn	.
*	*^	*
4r	4a-	2.a-	.
(8f	[8ff	.	.
4dn	8ff]	.	.
.	[4dd	.	.
8Bn	.	.	.
*	*v	*v	*
!!LO:LB:g=z
=72	=72	=72
*^	*	*
4.ryy	4A-	8ddn]L)	.
.	.	(8ee-	.
.	8F)	[8ccJ	.
(4c 4e-	4.G	8ccL]	.
.	.	8dd	.
8dn	.	8bnJ	.
2.ryy	4c)	8ccL)	.
.	.	(8c	p
.	(>8E-	8e-J	.
.	4F	4dn	.
.	8G	8b/	.
*v	*v	*	*
=73	=73	=73
4c)	8cc'L)	.
.	(8cc	mf
(8E-	8ee-J	.
4F	4ddn	.
8G	8bbn	.
4c)	8ccc'\L)	.
.	(8c/	p
(8E-	8e-/J	.
4F	4dn)	<
8G)	(8dd	.
=74	=74	=74
*^	*^	*
2.ryy	4r	4a-	2.a-	.
.	(8f	[8ff	.	.
.	4dn	8ff]	.	.
.	.	[4ddn	.	.
.	8Bn	.	.	.
4.ryy	4A-	8ddL]	2.ryy	.
.	.	8ee-	.	.
.	8F)	[8ccJ	.	.
(4c 4e-	4.G	8ccL]	.	.
.	.	8dd	.	.
8d	.	8bnJ	.	.
*v	*v	*	*	*
*	*v	*v	*
!!LO:LB:g=z
=75||	=75||	=75||
*k[b-]	*k[b-]	*k[b-]
4c)	4cc)	f
(8C	([8ee [8gg	.
4G)	8ee] 8ggL]	.
.	8ff 8aa)	.
(8GG	([8dd [8ffJ	.
4C)	8dd] 8ffL]	.
.	8ee 8gg)	.
8CC'	([8cc [8eeJ	.
(4G	8cc] 8eeL]	.
.	8dd 8ff)	.
8GG	(8bn 8ddJ	.
=76	=76	=76
4.C)	4cc)	.
.	([8ee [8gg	p
(4.E	8ee] 8ggL]	.
.	8ff 8aa)	.
.	([8dd [8ffJ	.
4.F	8dd] 8ffL]	.
.	8ee 8gg)	.
.	([8cc [8eeJ	.
4.G	8cc] 8eeL]	.
.	8dd 8ff)	.
.	(8bn 8ddJ	.
!!LO:LB:g=z
=77	=77	=77
4.C)	8ccL	<
.	8dd	.
.	8eeJ	.
(4.E	8eeL	.
.	8ff	.
.	8ggJ	.
4.F	8aaL	.
.	8bbn	.
.	8cccJ)	.
4.G	4.ddMM	f
=78	=78	=78
4.C)	(8cL	p
.	8d	<
.	8eJ	.
(4.E	8eL	.
.	8f	.
.	8gJ	.
4.F	8aL>	.
.	8bn	.
.	8ccJ)	.
4.G	(4.dMM	mf
!!LO:LB:g=z
=79	=79	=79
*	*^	*
(8CL)	4.ryy	4.c)	.
8D	.	.	.
8EJ	.	.	.
8EL	[4.cc [4.ee	2.g	.
8F	.	.	.
8GJ	.	.	.
8AL	4cc] 4ee]	.	.
8Bn	.	.	.
8cJ)	([8dd [8ff	.	.
*	*v	*v	*
4.GG	8dd] 8ffL]	.
.	8cc 8ee	.
.	8bn 8ddJ	.
=80	=80	=80
(8CL	4.cc 4.ee)	.
8D	.	.
8EJ	.	.
*	*^	*
8EL	[4.cc [4.ee	[2.g	.
8F	.	.	.
8GJ	.	.	.
8AL	4cc] 4ee]	.	.
8Bn	.	.	.
8cJ)	([8ff	.	.
(4.GG	8ff]L	8gL]	.
.	8ee	(8g	.
.	8ddJ	8fJ	.
=81	=81	=81	=81
4.CC 4.C)	4.cc)	4.e)	.
4r	4r	4.ryy	.
8r	8r	.	.
2.r	2.r	2.ryy	.
*	*v	*v	*
!!LO:LB:g=z
=82:|!|:	=82:|!|:	=82:|!|:
*>B	*>B	*>B
1.r	4r	.
.	8r	.
.	(8ggL	mf
.	8ff	.
.	8eeJ	.
.	8ddL	.
.	8ee	.
.	8ffJ	.
.	8eeL	.
.	8dd	.
.	8ccJ	.
=83	=83	=83
2.r	8b-XL	.
.	8cc	.
.	8ddJ)	.
.	(cc8q	.
.	(8b-L)	.
.	8a	.
.	8g#J	.
4r	4a)	.
.	.	<
8r	(8a	.
(8gL	4.cc#	[ f
8f	.	.
8eJ	.	.
=84	=84	=84
8fL	2.dd)	.
8g	.	.
8aJ	.	.
8fL	.	.
8e	.	.
8dJ	.	.
8c#L	(8eeL	.
8d	8ff	.
8eJ	8ggJ	.
8dL	8ffL	.
8cn	8ee	.
8B-J	8ddJ	.
!!LO:LB:g=z
=85	=85	=85
8AL)	4cc#)	.
(8AA	.	.
8AJ	[8aa	.
8B-L	4aa]	.
8A	.	.
8B-J	(8dd	.
8AL)	4cc#)	.
(8AA	.	.
8AJ	[8aa	.
8B-L	4aa]	.
8A	.	.
8B-J	(8dd	.
=86	=86	=86
4.AA)	8cc#L	.
.	8dd	.
.	8eeJ)	.
(4.c#	8r	.
.	(8aL	f
.	8eJ	.
4.d	8fL	.
.	8d	.
.	8aJ	.
4.Bn	8g#L	.
.	8e	.
.	8g# 8ddJ)	.
=87	=87	=87
4.A)	(4g#/ 4dd/	.
.	8a/ 8cc#/)	.
(4.c#	8r	.
.	(8aL	p
.	8eJ	.
4.d	8fL	.
.	8d	.
.	8aJ	.
4.Bn	8g#L	.
.	8e	.
.	8g# 8ddJ)	.
!!LO:LB:g=z
=88	=88	=88
4.A)	(4g# 4dd	>
.	8a 8cc#)	.
(4.f	8r	] mf
.	(8ddL	.
.	8aJ	.
4.g	8b-L	.
.	8gn	.
.	8ddJ	.
4.c#	8eeL	.
.	8a	.
.	8b- 8ggJ)	]
=89	=89	=89
4.d)	(4b- 4gg	>
.	8a 8ff)	.
(4.f	8r	]
.	(8ddL	p
.	8aJ	.
4.g	8b-L	.
.	8g	.
.	8ddJ	.
4.c#	8eeL	.
.	8a	.
.	8b- 8ggJ)	.
=90	=90	=90
4.d)	(4b- 4gg	>
.	8a 8ff#)	.
*clefG2	*	*
(<4.b-	8r	]
.	(8ggL	mf
.	8ddJ	.
4.cc	8ee-L	.
.	8cc	.
.	8ggJ	.
4.f#	8aaL	.
.	8dd	.
.	8ee- 8cccJ)	.
!!LO:LB:g=z
=91	=91	=91
4.g)	(4ee- 4ccc	>
.	8dd 8bb-)	]
(4.b-	8r	p
.	(8ggL	<
.	8ddJ	.
4.cc	8ee-L	.
.	8cc	.
.	8ggJ	.
4.f#	8aaL	.
.	8dd	.
.	8cccJ)	.
=92	=92	=92
4.g)	(8cccL	f
.	8bb-	.
.	8aaJ)	.
(<4.b-/	(8aaL	.
.	8gg	.
.	8ffJ)	.
4.c	(8ffL	.
.	8ee-	.
.	8ddJ)	.
4.e-	(8ddL	.
.	8cc	.
.	8b-J)	.
*clefF4	*	*
=93	=93	=93
4.F)	(8b-L	.
.	8a	.
.	8gJ)	.
(4.A	(8gL	.
.	8f	.
.	8e-J	.
4.B-	8dL	.
.	8e-	.
.	8fJ	.
4.A	8gL	.
.	8f	.
.	8e-J)	.
!!LO:LB:g=z
=94||	=94||	=94||
*k[b-e-a-d-]	*k[b-e-a-d-]	*k[b-e-a-d-]
*M2/2	*M2/2	*M2/2
*met(c|)	*met(c|)	*
*MM216	*MM216	*MM216
!!LO:TX:tempo:t=([half]=108)
2B-)	(4e-	>
.	4dn)	]
*^	*	*
2c	(4An	(8fL	p <
.	.	8an	.
.	4F)	8cc	.
.	.	8ee-J)	[
*v	*v	*	*
=95	=95	=95
*^	*	*
2ryy	2B-	(4ee-	>
.	.	4ddn)	.
2c	(4An	(8fL	.
.	.	8an	.
.	4F)	8cc	.
.	.	8ee-J)	]
*v	*v	*	*
=96	=96	=96
2B-	(4ee-	>
.	4ddn)	]
4Dn 4B-	(8b-L	<
.	8dd	.
4D 4B-	8ff	.
.	8aa-XJ)	[
=97	=97	=97
4E- 4B-	(4aa-	>
4E- 4B-	4gg)	]
4Dn 4B-	(8b-L	<
.	8ddn	.
4D 4B-	8ff	.
.	8aa-J)	[
!!LO:LB:g=z
=98	=98	=98
*^	*	*
2B-	4E-	(8aa-L	mf
.	.	8gg)	.
.	(>4F	(8gg	.
.	.	8ffJ)	.
2ryy	4G	(8ffL	.
.	.	8ee-)	.
.	4E-	(8ee-	.
.	.	8ddnJ)	.
*v	*v	*	*
=99	=99	=99
4A-	(8ddnL	.
.	8cc)	.
4B-	(8cc	.
.	8b-J)	.
4c	(8b-L	.
.	8a-	.
4dn	8g	.
.	8fJ)	.
=100	=100	=100
*^	*	*
.	.	(f8qq	.
2e-)	2ryy	2g)	>
.	.	.	]
2B-	(4G	(8e-L	p <
.	.	8g	.
.	4E-)	8b-	.
.	.	8dd-XJ)	[
*v	*v	*	*
=101	=101	=101
2A-	(4dd-	>
.	4cc)	]
*^	*	*
2B-	(4G	(8e-L	<
.	.	8g	.
.	4E-)	8b-	.
.	.	8dd-J)	[
*v	*v	*	*
!!LO:LB:g=z
=102	=102	=102
2.A-	(4dd-	>
.	4cc)	]
.	(8ee-L	mf
.	8b-)	.
4G- (4B-	(8b-	.
.	8anJ)	.
=103	=103	=103
4F 4An	(8anL	.
.	8b-)	.
4Gn 4B-	(8b-	.
.	8ccJ)	.
4A 4c)	8cc'L	.
.	(8cc	.
4F' 4A'	8dd-	.
.	8ee-J)	.
=104	=104	=104
*^	*	*
.	.	(ee-8qq	.
2ryy	2B-	(4dd-)	.
.	.	8ccL	.
.	.	8b-J)	]
2c	(4An	(8fL>	p <
.	.	8an	.
.	4F)	8cc	.
.	.	8ee-J)	[
=105	=105	=105	=105
2ryy	2B-	(4ee-	>
.	.	4dd-)	]
2c	(4An	(8fL	<
.	.	8an	.
.	4F)	8cc	.
.	.	8ee-J)	[
*v	*v	*	*
!!LO:LB:g=z
=106	=106	=106
2.B-	(4ee-	>
.	4dd-)	]
.	(8ffL	mf
.	8cc)	.
4A-X (4c	(8cc	.
.	8bnJ)	.
=107	=107	=107
4G 4Bn	(8bnL	.
.	8cc)	.
4An 4c	(8cc	.
.	8ddnJ)	.
4B 4dn)	8dd'L	.
.	(8dd	.
4G' 4B'	8ee-	.
.	8ffJ)	.
=108	=108	=108
*^	*	*
.	.	(ff8qq	.
2ryy	2c	(4ee-)	>
.	.	8ddnL	]
.	.	8ccJ)	.
2dn	(4Bn	(8gL	p <
.	.	8bn	.
.	4G)	8dd	.
.	.	8ffJ)	[
=109	=109	=109	=109
2ryy	2c	(4ff	>
.	.	4ee-)	]
2dn	(4Bn	(8gL	<
.	.	8bn	.
.	4G)	8ddn	.
.	.	8ffJ)	[
*v	*v	*	*
!!LO:LB:g=z
=110	=110	=110
2c	(4ff	>
.	4een)	]
(4En	(8ggL	mf
.	8ee	.
4c)	8cc	.
.	8b-XJ)	.
=111	=111	=111
(4F	(4b-/	>
4c)	4a-)	]
(4BB-	(8dd-L	.
.	8b-	.
4B-)	8g	.
.	8fJ)	]
=112	=112	=112
(4C	(4f	>
4c)	4en)	]
(4En	(8ggL	.
.	8een	.
4c)	8cc	.
.	8b-J)	]
=113	=113	=113
(4F	(4b-/	>
4c)	4a-)	]
(<4BB-	(8dd-L	<
.	8b-	.
4B-)	8g	.
.	8fJ	[
!!LO:LB:g=z
=114||	=114||	=114||
*M12/8	*M12/8	*M12/8
*MM190	*MM190	*MM190
!!LO:TX:tempo:t=([quarter-dot]=126)
4.C	4en)	mf
.	(8ccc	.
4r	8bb-L	.
.	8aa-	.
8r	8ggJ	.
2.r	8aa-L	.
.	8bb-	.
.	8cccJ	.
.	8bb-L	.
.	8aa-	.
.	8ggJ	.
=115	=115	=115
1.r	8ffL	.
.	8gg	.
.	8aa-J	.
.	8ggL	.
.	8ff	.
.	8ee-XJ	.
.	8dd-L	.
.	8ee-	.
.	8ffJ	.
.	8dd-L	.
.	8cc	.
.	8bnJ	.
*clefG2	*	*
=116	=116	=116
4r	4.cc)	<
(8cc	.	.
8b-L	(4.een	[ f
8a-	.	.
8gJ	.	.
8a-L	2.ff)	.
8b-	.	.
8ccJ	.	.
8a-L	.	.
8g	.	.
8fJ	.	.
!!LO:LB:g=z
=117	=117	=117
8enL	(8ggL	.
8f	8aa-	.
8gJ	8bb-J	.
8fL	8aa-L	.
8e-	8gg	.
8d-J	8ffJ	.
*clefF4	*	*
8cL)	4ccc)	.
(8C	.	.
8cJ	(8een	.
8d-L	8ffL	.
8c	8ee	.
8d-J	8ffJ	.
=118	=118	=118
8cL)	4gg)	.
(8C	.	.
8cJ	(8een	.
8d-L	8ffL	.
8c	8ee	.
8d-J	8ffJ	.
8cL)	4gg)	.
(8C	.	.
8cJ	(8ee	.
8d-L	8ffL	.
8c	8ee	.
8d-J)	8ffJ)	.
!!LO:LB:g=z
=119	=119	=119
.	(ff8qq	.
4.C	4.gg)	.
(4.en	8r	mf
.	(8ccL	.
.	8gJ	.
4.f	8a-L	.
.	8f	.
.	8ccJ	.
4.dn	8bnL	.
.	8g	.
.	8b 8ffJ)	.
=120	=120	=120
4.c)	(4bn 4ff	>
.	8cc 8een)	.
(4.en	8r	] p
.	(8ccL	.
.	8gJ	.
4.f	8a-L	.
.	8f	.
.	8ccJ	.
4.dn	8bL	.
.	8g	.
.	8b 8ffJ)	.
=121	=121	=121
4.c)	(4bn 4ff	>
.	8cc 8een)	.
*clefG2	*	*
(4.a-	8r	] mf
.	(8ffL	.
.	8ccJ	.
4.b-/	8dd-XL	.
.	8b-	.
.	8ffJ	.
4.g	8eeL	.
.	8cc	.
.	8ee 8bb-J)	.
!!LO:LB:g=z
=122	=122	=122
4.f)	(4een 4bb-	>
.	8ff 8aa-)	.
(4.a-	8r	] p
.	(8ffL	<
.	8ccJ	.
4.b-/	8dd-L	.
.	8b-	.
.	8ffJ	.
4.g	8eeL	.
.	8cc	.
.	8bb-J)	.
=123	=123	=123
4.f)	(8bb-L	mf
.	8aa-	.
.	8ggJ)	.
*clefF4	*	*
(4.a-	(8ggL	.
.	8ff	.
.	8ee-XJ)	.
4.B-	(8ee-L	.
.	8dd-	.
.	8ccJ	.
4.c	8b-L	.
.	8a-	.
.	8gJ	.
=124	=124	=124
4.F)	4f)	.
.	([8cc	.
*clefG2	*	*
(4.f 4.a-	8ccL]	.
.	8dd-	.
.	8b-J	.
4.en) 4.g	4cc)	.
.	([8gg	.
(4.d- 4.f 4.g	8ggL]	.
.	8aa-	.
.	8ffJ	.
!!LO:LB:g=z
=125	=125	=125
4.c) 4.en 4.g	4gg)	.
.	([8cc	.
(4.f 4.a-	8ccL]	.
.	8dd-	.
.	8b-J	.
4.e) 4.g	4cc)	.
.	([8gg	.
(4.d- 4.f 4.g	8ggL]	.
.	8aa-	.
.	8ffJ	.
=126	=126	=126
*^	*	*
4.c) 4.en 4.g	2.ryy	4gg)	.
.	.	([8ddd-	f
4.B- 4.e 4.g	.	8ddd-L]	.
.	.	8bb-	.
.	.	8ggJ	.
4A- 4f	4.ryy	8cccL	.
.	.	8aa-	.
(8B- 8g	.	[8ffJ	.
4a-	4.c	8ffL]	.
.	.	8gg	.
8g	.	8eenJ	.
*v	*v	*	*
*clefF4	*	*
=127	=127	=127
4.F 4.f)	4ff)	.
.	([8cc	p
*clefG2	*	*
(4.f 4.a-	8ccL]	.
.	8dd-	.
.	8b-J	.
4.en) 4.g	4cc)	.
.	([8gg	.
(4.d- 4.f 4.g	8ggL]	.
.	8aa-	.
.	8ffJ	.
!!LO:LB:g=z
=128	=128	=128
4.c) 4.en 4.g	4gg)	.
.	([8cc	.
(4.f 4.a-	8ccL]	.
.	8dd-	.
.	8b-J	.
4.e) 4.g	4cc)	.
.	([8gg	.
(4.d- 4.f 4.g	8ggL]	.
.	8aa-	.
.	8ffJ	.
=129	=129	=129
*^	*	*
4.c) 4.en 4.g	2.ryy	4gg)	.
.	.	([8ddd-	f
(4.B- 4.e 4.g	.	8ddd-L]	.
.	.	8bb-	.
.	.	8ggJ	.
4A-) 4f	4.ryy	8cccL	.
.	.	8aa-	.
(8B- 8g	.	[8ffJ	.
4a-	4.c	8ffL]	.
.	.	8gg	.
8g	.	8eenJ	.
*clefF4	*	*	*
!!LO:LB:g=z
=130	=130	=130	=130
2.F 2.f)	2.ryy	4.ff)	.
.	.	(8cccL	mf
.	.	8aa-	.
.	.	8ffJ)	.
.	.	(gg8q	.
*v	*v	*	*
*clefG2	*	*
*^	*	*
(4.c	(2c.	(8ffL)	.
.	.	8een)	.
.	.	8ee'J	.
[4.cc	.	8gg'L	.
.	.	8gg'	.
.	.	8gg'J	.
=131	=131	=131	=131
*	*	*^	*
4.cc]	2.d-	2.aa-	(8ggL	>
.	.	.	8ff)	]]
.	.	.	8ff'J	.
4.b-	.	.	8ff'L	.
.	.	.	8ff'	.
.	.	.	8ff'J	.
4.a-)	2.c	4.gg	(8ffL	>
.	.	.	8een)	]]
.	.	.	8ee'J	.
([4.cc	.	4.ryy	8gg'<L	.
.	.	.	8gg'<	.
.	.	.	8gg'<J	.
!!LO:LB:g=z
=132	=132	=132	=132	=132
4.cc]	2.d-	2.aa-	(8ggL	>
.	.	.	8ff)	]]
.	.	.	8ff'J	.
4.b-)	.	.	8ff'L	.
.	.	.	8ff'	.
.	.	.	8ff'J	.
(4.cc	4.c)	4.gg	(8ffL	>
.	.	.	8ee-X)	.
.	.	.	8ee-'J	.
4.b-/	4.ryy	4.ff	(8ee-L	.
.	.	.	8dd-)	.
.	.	.	8dd-'J	.
*v	*v	*	*	*
=133	=133	=133	=133
4.a-	4.ee-	(8dd-L	.
.	.	8cc)	.
.	.	8cc'J	.
4.g	4.dd-	(8ccL	.
.	.	8b-)	.
.	.	8b-'J	.
4.f)	4.cc	(8b-L	.
.	.	8a-)	.
.	.	(<8b-J	.
*clefF4	*	*	*
(<4.F	4.ryy	8ccL	p
.	.	8a-	.
.	.	8fJ)	.
!!LO:LB:g=z
=134	=134	=134	=134
*^	*	*	*
.	.	.	(g8q	.
4.C)	(2.C	2.ryy	8fL)	.
.	.	.	8en	.
.	.	.	8e'J	.
([4.c	.	.	8g'L	.
.	.	.	8g'	.
.	.	.	8g'J	.
4.c]	2.D-	2.a-	(8gL	.
.	.	.	8f)	.
.	.	.	8f'J	.
4.B-	.	.	8f'L	.
.	.	.	8f'	.
.	.	.	8f'J	.
=135	=135	=135	=135	=135
4.A-)	2.C	4.g	(8fL	.
.	.	.	8en)	.
.	.	.	8e'J	.
([4.c	.	4.ryy	8g'<L<	.
.	.	.	8g'<	.
.	.	.	8g'<J	.
4.c]	2.D-)	2.a-	(8gL	.
.	.	.	8f)	.
.	.	.	8f'J	.
4.B-)	.	.	8f'L	.
.	.	.	8f'	.
.	.	.	8f'J	.
*v	*v	*	*	*
!!LO:LB:g=z
=136	=136	=136	=136
(<4.C	2.g	(8fL	.
.	.	8e-X)	.
.	.	8e-'J	.
4.c	.	8e-'L	.
.	.	8e-'	.
.	.	8e-'J	.
4.F)	4.an	8e-'L	<
.	.	8e-'	.
.	.	8e-'J	.
(<4.BB- 4.B-	4.b-	8d-'L	.
.	.	8d-'	.
.	.	8d-'J	.
=137	=137	=137	=137
4.C) 4.c	4.b-	8en'L	.
.	.	8e'	.
.	.	8e'J	.
(<4.F 4.c	8a-X'L	4.f	.
.	8a-'	.	.
.	8a-'J	.	.
4.G)	8bn'L	4.f	.
.	8b'	.	.
.	8b'J	.	.
(4.C ([4.c	4.cc	8en'L	.
.	.	8e'	.
.	.	8e'J	.
!!LO:LB:g=z
=138	=138	=138	=138
*^	*	*	*
4.c]	2.D-	4.cc	8f'L	.
.	.	.	8f'	.
.	.	.	8f'J	.
4.B-	.	8ff'L	4.b-X	f
.	.	8ff'	.	.
.	.	8ff'J	.	.
2.ryy	4.C 4.c))	8een'L	4.b-	.
.	.	8ee'	.	.
.	.	8ee'J	.	.
.	(4.F	8ff'L	4.a-	.
.	.	8ff'	.	.
.	.	8ff'J	.	.
*v	*v	*	*	*
*	*v	*v	*
=139	=139	=139
.	(ee-X8qq	.
4.B-	(8dd-L)	.
.	8cc	.
.	8b-J)	.
4.c)	(8b-L	.
.	8a-	.
.	8gJ	.
(<4.FF	8fL	.
!	!	!LO:DY:rj
.	8a-	p
.	8b-J	.
4.F)	8ccL	.
.	8a-	.
.	8fJ)	.
!!LO:LB:g=z
=140	=140	=140
*^	*	*
.	.	(g8q	.
(4.C	(2.C	(8fL)	.
.	.	8en)	.
.	.	8e'J	.
[4.c	.	8g'L	.
.	.	8g'	.
.	.	8g'J	.
*	*	*^	*
4.c]	2.D-	2.a-	(8gL	.
.	.	.	8f)	.
.	.	.	8f'J	.
4.B-	.	.	8f'L	.
.	.	.	8f'	.
.	.	.	8f'J	.
=141	=141	=141	=141	=141
4.A-)	2.C	4.g	(8fL	.
.	.	.	8en)	.
.	.	.	8e'J	.
([4.c	.	4.ryy	8g'<L<	.
.	.	.	8g'<	.
.	.	.	8g'<J	.
4.c]	2.D-)	2.a-	(8gL	.
.	.	.	8f)	.
.	.	.	8f'J	.
4.B-)	.	.	8f'L	.
.	.	.	8f'	.
.	.	.	8f'J	.
*v	*v	*	*	*
!!LO:LB:g=z
=142	=142	=142	=142
(<4.C	2.g	(8fL	.
.	.	8e-X)	.
.	.	8e-'J	.
4.c	.	8e-'L	.
.	.	8e-'	.
.	.	8e-'J	.
4.F)	4.an	8e-'L	.
.	.	8e-'	.
.	.	8e-'J	.
4.BB- (4.B-	4.b-	8d-'L	.
.	.	8d-'	.
.	.	8d-'J	.
=143	=143	=143	=143
4.C 4.c)	4.b-	8en'L	.
.	.	8e'	.
.	.	8e'J	.
(4.F	8a-X'L	4.f	<
.	8a-'	.	.
.	8a-'J	.	.
4.G)	8bn'L	4.f	.
.	8b'	.	.
.	8b'J	.	[
(4.C ([4.c	4.cc	8e'L	.
.	.	8e'	.
.	.	8e'J	.
!!LO:LB:g=z
=144	=144	=144	=144
*^	*	*	*
4.c]	2.D-	4.cc	8f'\L	.
.	.	.	8f'	.
.	.	.	8f'J	.
4.B-	.	8ff'L	4.b-X	mf
.	.	8ff'	.	.
.	.	8ff'J	.	.
2.ryy	4.C 4.c))	8een'L	4.b-	.
.	.	8ee'	.	.
.	.	8ee'J	.	.
.	(4.F	8ff'L	4.a-	.
.	.	8ff'	.	.
.	.	8ff'J	.	.
*v	*v	*	*	*
*	*v	*v	*
=145	=145	=145
.	(ee-X8qq	.
4.B-	8dd-L)	.
.	8cc	.
.	8b-J	.
4.c)	(8b-L	.
.	8a-	.
.	8gJ	.
4.F 4.A- 4.c	8fL)	.
.	(8f	p
.	8a-J	.
(<4.C 4.G 4.c	4g)	.
.	(8een	<
=146	=146	=146
4.F) 4.A- 4.c	8ff\L)	.
.	(8f/	.
.	8a-/J	.
(<4.C 4.G 4.c	4g)	.
.	(8een 8gg	.
4.F) 4.A- 4.c	8ff\ 8aa-\L)	.
.	(8f/	.
.	8a-/J	.
(<4.C 4.G 4.c	4g)	.
.	(8gg 8bb-	.
!!LO:LB:g=z
=147	=147	=147
4.F) 4.A- 4.c	8aa- 8cccL)	f
.	(8een	.
.	8ggJ	.
(4.A-	8ffL	.
.	8cc	.
.	8ee-J)	.
4.B-	(8ee-L	.
.	8dd-	.
.	8ccJ	.
4.c)	8b-L	.
.	8a-	.
.	8gJ	.
=148	=148	=148
4.F 4.A- 4.c	8fL)	.
.	(8f	p
.	8a-J	.
(<4.C 4.G 4.c	4g)	.
.	(8een	.
4.F 4.A- 4.c)	8ff\L)	.
.	(8f/	.
.	8a-/J	.
(<4.C 4.G 4.c	4g)	.
.	8ee (8gg	.
=149	=149	=149
4.F 4.A- 4.c)	8ff\ 8aa-\L)	.
.	(8f/	.
.	8a-/J	.
(4.C 4.G 4.c	4g)	.
.	8gg (8bb-	.
4.F) 4.A- 4.c	8aa- 8cccL)	.
.	(8een	.
.	8ggJ	.
(<4.AA- 4.A-	8ffL	.
.	8cc	.
.	8ee-J)	.
!!LO:LB:g=z
=150	=150	=150
4.BB-	(<8ee-L	.
.	8dd-	.
.	8ccJ	.
4.C)	8b-L	.
.	8a-	.
.	8gJ	.
=||	=||	=||
*k[b-]	*k[b-]	*k[b-]
(<4.F 4.c	4f)	.
.	[8aa ([8ccc	f
4.C 4.c	8aa] 8cccL]	.
.	8bb- 8ddd)	.
.	[8gg ([8bb-J	.
=151	=151	=151
4.F 4.c	8gg] 8bb-L]	.
.	8aa 8ccc)	.
.	[8ff ([8aaJ	.
4.C 4.c	8ff] 8aaL]	.
.	8gg 8bb-)	.
.	8ee (8ggJ	.
4.F 4.c	4ff)	.
!	!	!LO:DY:rj
.	[8a ([8cc	p
4.C 4.c	8a] 8ccL]	.
.	8b- 8dd)	.
.	[8g ([8b-J	.
!!LO:LB:g=z
=152	=152	=152
4.F 4.c	8g] 8b-L]	.
.	8a 8cc)	.
.	([8f [8aJ	.
4.C 4.c	8f] 8aL]	.
.	8g) 8b-	.
.	8e (8gJ	.
4.F)	8fL	<
.	8g	.
.	8aJ	.
(4.AA	8aL	.
.	8b-	.
.	8ccJ	.
=153	=153	=153
4.BB-	8ddL	.
.	8ee	.
.	8ffJ)	.
4.C)	(4.gMM	f
(8FL	4.f)	>
8G	.	.
8AJ	.	.
8AL	(8fL	] p <
8B-	8g	.
8cJ	8aJ	.
=154	=154	=154
8dL	8b-L	.
8e	8cc	.
8fJ)	8ddJ)	[
4.CC	(8ddL	f
.	8cc	.
.	8b-J	.
(8FL	8aL	.
8G	8g	.
8AJ	8fJ)	.
8AL	(8fL	p <
8B-	8g	.
8cJ	8aJ	.
!!LO:LB:g=z
=155	=155	=155
8dL	8b-L	.
8e	8cc	.
8f)J	8ddJ)	.
(4.CC	(8ddL	[ f
.	8cc	>
.	8b-J	.
4.FF	8aL	.
.	8b-	.
.	8ccJ)	]
4.AA	(8fL	p
.	8g	<
.	8aJ	.
=156	=156	=156
4.BB-)	8dL)	.
.	(8b- 8dd	.
.	8a 8ccJ	.
(4.C	8g 8b-L	.
.	8f 8a	.
.	8g 8b-J	.
4.FF	8aL>)	.
.	(8b-	.
.	8ccJ	.
4.AA	8fL	.
.	8g	.
.	8aJ	.
=157	=157	=157
4.BB-)	8dL)	.
.	(8d 8b-	f
.	8c 8aJ	.
(4.C	8B- 8gL	.
.	8A 8f	.
.	8G) 8eJ	.
.	(G8qq 8qqe	.
4.FF)	4.F) 4.f	.
4r	4r	.
8r	8r	.
==:|!	==:|!	==:|!
*-	*-	*-
!!!RDF**kern: > = above
!!!RDF**kern: < = below
!!!RDF**dynam: > = dim.
!!!PTL: Domenico Scarlatti: Opere complete per clavicembalo, vol. 1
!!!PED: Longo, Alessandro
!!!PPR: Ricordi
!!!PPP: Milan
!!!PDT: 1906-1913
!!!ENC: Craig Stuart Sapp
!!!END: 2005/08/12
!!!EED: Craig Stuart Sapp
!!!EEV: 2021/02/10
